X: 220
T: No_76_Lizard_Dance_Song_(a).krn
N: Derived from No_76_Lizard_Dance_Song_(a).krn
%%abc-version 2.0
%%abcx-abcm2ps-target-version 5.9.1 (29 Sep 2008)
%%abc-creator hum2abc beta
%%abcx-conversion-date 2019/03/15 08:38:45
%%humdrum-veritas 2520081709
%%humdrum-veritas-data 716348308
%%linebreak <none>
%%barnumbers 0
L: 1/8
M: 2/4
K: F clef=bass
[K:clef=bass][M:2/4]C3/A,/ A, z | 
CA, C3/C/ | 
(3(A,/G,)F, F, z | 
F,3/F,/ A,3/C/ | 
(3A,G,F,!fermata!F,2 | 
[M:3/4]!fermata!C7/C/ A,3/A,/ [I:setbarnb 7]||  
[M:2/4](G,3/F,/) F, z | 
z2D,C, | 
F,2F,2 | 
F,/A,3/ CB,/A,/ | 
A,/A,/A,A,2 ||  
[M:3/4]z2D,C,F,2 :|]  



